X: 091
M: 6/8
L: 1/8
K: F	% Each strain ends in Dm
V: 1
f |\
cAA fAA | aAA cGG | cAA fAA | aAc d2f |\
cAA fAA | aAA cGG | AGF fga | gec d2 :|
|: c |\
V: 2 clef=bass middle=d
z |\
a3 a3 | a3 g3 | a3 a3 | a3 a3 |\
a3 a3 | a3 g3 | f3 f3 | e3 d2 :|
|: z |\
f3 f3 | c3 c3 | f3 f3 | d3 d3 |\
f3 f3 | f3 g3 | f3 f3 | e3 d2 :|

